.local/share/icons/Gruvbox-Plus-Dark/actions/24/view-pages-facing-first-centered.svg

<svg xmlns="http://www.w3.org/2000/svg" width="24" height="24" version="1.1">
 <defs>
  <style id="current-color-scheme" type="text/css">
   .ColorScheme-Text { color:#555555; } .ColorScheme-Highlight { color:#4285f4; } .ColorScheme-NeutralText { color:#ff9800; } .ColorScheme-PositiveText { color:#4caf50; } .ColorScheme-NegativeText { color:#f44336; }
  </style>
 </defs>
 <path style="fill:currentColor" class="ColorScheme-Text" d="M 10.666016,4 8,6.8574219 V 13.285156 C 8,13.285156 7.9993486,14 8.6660156,14 H 15.333984 C 15.333984,14 16,13.999442 16,13.285156 V 4.7148437 C 16,4.0005579 15.333984,4 15.333984,4 Z m 0.748047,2 H 14 v 6 H 10 V 7.6972656 Z M 6.6660156,10 4,12.857422 v 6.427734 C 4,19.285156 3.9993486,20 4.6660156,20 H 11.333984 C 11.333984,20 12,19.999442 12,19.285156 12,19.285156 11.999349,20 12.666016,20 h 6.667968 C 19.333984,20 20,19.999442 20,19.285156 V 10.714844 C 20,10.000558 19.333984,10 19.333984,10 H 17 v 2 h 1 v 6 h -4 v -3 h -2 -2 v 3 H 6 V 13.697266 L 7,12.496094 V 10 Z"/>
</svg>

<svg width="24" height="24" version="1.1" xmlns="http://www.w3.org/2000/svg">
  <defs>
    <style id="current-color-scheme" type="text/css">.ColorScheme-Text { color:#ebdbb2; } .ColorScheme-Highlight { color:#458588; }</style>
  </defs>
  <path class="ColorScheme-Text" d="m10.67 4-2.666 2.857v6.428s-6.514e-4 0.7148 0.666 0.7148h6.668s0.666-5.58e-4 0.666-0.7148v-8.57c0-0.7143-0.666-0.7148-0.666-0.7148zm0.748 2h2.586v6h-4v-4.303zm-4.748 4-2.666 2.857v6.428s-6.514e-4 0.7148 0.666 0.7148h6.668s0.666-5.58e-4 0.666-0.7148c0 0-6.51e-4 0.7148 0.666 0.7148h6.668s0.666-5.58e-4 0.666-0.7148v-8.57c0-0.7143-0.666-0.7148-0.666-0.7148h-2.334v2h1v6h-4v-3h-4v3h-4v-4.303l1-1.201v-2.496z" fill="currentColor"/>
</svg>
